source/images/phone.svg

<?xml version="1.0" encoding="UTF-8" standalone="no"?>
<svg width="295px" height="615px" viewBox="0 0 295 615" version="1.1" xmlns="http://www.w3.org/2000/svg" xmlns:xlink="http://www.w3.org/1999/xlink">
    <!-- Generator: Sketch 39.1 (31720) - http://www.bohemiancoding.com/sketch -->
    <title>phone</title>
    <desc>Created with Sketch.</desc>
    <defs></defs>
    <g id="Page-1" stroke="none" stroke-width="1" fill="none" fill-rule="evenodd">
        <g id="phone">
            <path class="device-outer" d="M247.890427,3.80111524 L43.7818428,3.80111524 C23.9328166,3.80111524 5.04089219,22.7082792 5.04089219,46.0320289 L5.04089219,571.217591 C5.04089219,594.54134 23.9328166,613.448504 47.2377668,613.448504 L251.345967,613.448504 C274.650917,613.448504 293.542842,594.54134 293.542842,571.217591 L293.542842,46.0320289 C293.542842,22.7082792 274.650917,3.80111524 247.890427,3.80111524" id="Path"></path>
            <path d="M5.76415302,113.452745 L4.11003553,113.452745 C3.26264557,113.452745 2.57522012,112.765149 2.57522012,111.917076 L2.57522012,90.1616287 C2.57522012,89.3135552 3.26264557,88.6259591 4.11003553,88.6259591 L5.76415302,88.6259591 L5.76415302,113.452745 L5.76415302,113.452745 Z" id="Stroke-1" stroke="#FFFFFF"></path>
            <path d="M5.76415302,165.538627 L4.11003553,165.538627 C3.26264557,165.538627 2.57522012,164.851031 2.57522012,164.002957 L2.57522012,146.46945 C2.57522012,145.621376 3.26264557,144.93378 4.11003553,144.93378 L5.76415302,144.93378 L5.76415302,165.538627 L5.76415302,165.538627 Z" id="Stroke-3" stroke="#FFFFFF"></path>
            <path d="M5.76415302,216.471604 L4.11003553,216.471604 C3.26264557,216.471604 2.57522012,215.784008 2.57522012,214.935934 L2.57522012,197.402427 C2.57522012,196.554353 3.26264557,195.866757 4.11003553,195.866757 L5.76415302,195.866757 L5.76415302,216.471604 L5.76415302,216.471604 Z" id="Stroke-5" stroke="#FFFFFF"></path>
            <path d="M246.038527,3.7776038 L200.005573,3.7776038 L200.005573,1.73401149 C200.005573,0.885937965 200.692615,0.198341908 201.540005,0.198341908 L244.504096,0.198341908 C245.351486,0.198341908 246.038527,0.885937965 246.038527,1.73401149 L246.038527,3.7776038 L246.038527,3.7776038 Z" id="Stroke-7" stroke="#FFFFFF"></path>
            <path d="M248.237522,3.04639472 L44.1289376,3.04639472 C24.2799114,3.04639472 5.38798706,21.9535587 5.38798706,45.2773084 L5.38798706,570.46287 C5.38798706,593.78662 24.2799114,612.693784 47.5848616,612.693784 L251.693062,612.693784 C274.998012,612.693784 293.889937,593.78662 293.889937,570.46287 L293.889937,45.2773084 C293.889937,21.9535587 274.998012,3.04639472 248.237522,3.04639472 M248.237522,4.58206431 C260.613865,4.58206431 271.909585,8.8255033 280.043991,16.5307254 C287.983141,24.0508994 292.355505,34.2600308 292.355505,45.2773084 L292.355505,570.46287 C292.355505,592.902074 274.11418,611.158114 251.693062,611.158114 L47.5848616,611.158114 C25.1637441,611.158114 6.92241886,592.902074 6.92241886,570.46287 L6.92241886,45.2773084 C6.92241886,34.5733074 11.0097616,24.3422927 18.4314246,16.4692987 C25.5527226,8.91495605 34.9188943,4.58206431 44.1289376,4.58206431 L248.237522,4.58206431" id="Fill-12" fill="#FFFFFF"></path>
            <path d="M176.511811,561.931577 C176.511811,576.467074 164.7385,588.250266 150.215103,588.250266 C135.691706,588.250266 123.91801,576.467074 123.91801,561.931577 C123.91801,547.396848 135.691706,535.613656 150.215103,535.613656 C164.7385,535.613656 176.511811,547.396848 176.511811,561.931577 L176.511811,561.931577 Z" id="Stroke-13" stroke="#FFFFFF"></path>
            <path d="M170.374084,61.7997694 L129.709723,61.7997694 C126.531915,61.7997694 123.955988,59.2213802 123.955988,56.0410085 C123.955988,52.8606367 126.531915,50.2826314 129.709723,50.2826314 L170.374084,50.2826314 C173.551509,50.2826314 176.128203,52.8606367 176.128203,56.0410085 C176.128203,59.2213802 173.551509,61.7997694 170.374084,61.7997694 Z" id="Stroke-14" stroke="#FFFFFF"></path>
            <path d="M160.878291,566.897779 C160.878291,570.078535 158.301597,572.65654 155.124172,572.65654 L145.661715,572.65654 C142.483523,572.65654 139.907595,570.078535 139.907595,566.897779 L139.907595,557.428072 C139.907595,554.247317 142.483523,551.669311 145.661715,551.669311 L155.124172,551.669311 C158.301597,551.669311 160.878291,554.247317 160.878291,557.428072 L160.878291,566.897779 L160.878291,566.897779 Z" id="Stroke-15" stroke="#FFFFFF"></path>
            <path d="M155.37931,33.0875087 C155.37931,36.055958 152.974855,38.4623523 150.008798,38.4623523 C147.043125,38.4623523 144.638671,36.055958 144.638671,33.0875087 C144.638671,30.1190594 147.043125,27.7126652 150.008798,27.7126652 C152.974855,27.7126652 155.37931,30.1190594 155.37931,33.0875087 L155.37931,33.0875087 Z" id="Stroke-16" stroke="#FFFFFF"></path>
        </g>
    </g>
</svg>

<svg width="295" height="615" viewBox="0 0 295 615" xmlns="http://www.w3.org/2000/svg"><title>phone</title><desc>Created with Sketch.</desc><g fill="none" fill-rule="evenodd"><g><path class="device-outer" d="M247.89 3.8H43.782c-19.85 0-38.74 18.908-38.74 42.232v525.186c0 23.323 18.89 42.23 42.196 42.23h204.108c23.305 0 42.197-18.907 42.197-42.23V46.032c0-23.324-18.892-42.23-45.653-42.23"/><path d="M5.764 113.453H4.11c-.847 0-1.535-.688-1.535-1.536V90.162c0-.848.688-1.536 1.535-1.536h1.654v24.827z" stroke="#fff"/><path d="M5.764 165.54H4.11c-.847 0-1.535-.69-1.535-1.537V146.47c0-.85.688-1.536 1.535-1.536h1.654v20.605z" stroke="#fff"/><path d="M5.764 216.472H4.11c-.847 0-1.535-.688-1.535-1.536v-17.534c0-.848.688-1.535 1.535-1.535h1.654v20.605z" stroke="#fff"/><path d="M246.04 3.778h-46.034V1.734c0-.848.687-1.536 1.534-1.536h42.964c.847 0 1.535.688 1.535 1.536v2.044z" stroke="#fff"/><path d="M248.238 3.046H44.128c-19.848 0-38.74 18.908-38.74 42.23v525.187c0 23.324 18.892 42.23 42.197 42.23h204.108c23.305 0 42.197-18.906 42.197-42.23V45.277c0-23.323-18.892-42.23-45.652-42.23m0 1.535c12.376 0 23.672 4.244 31.806 11.95 7.94 7.52 12.312 17.728 12.312 28.745v525.186c0 22.44-18.242 40.695-40.663 40.695H47.585c-22.42 0-40.663-18.256-40.663-40.695V45.277c0-10.704 4.088-20.935 11.51-28.808C25.55 8.914 34.918 4.58 44.128 4.58h204.108" fill="#fff"/><path d="M176.512 561.932c0 14.535-11.774 26.318-26.297 26.318-14.523 0-26.297-11.783-26.297-26.318 0-14.535 11.774-26.318 26.297-26.318 14.523 0 26.297 11.783 26.297 26.318z" stroke="#fff"/><path d="M170.374 61.8H129.71c-3.178 0-5.754-2.58-5.754-5.76 0-3.18 2.576-5.757 5.754-5.757h40.664c3.178 0 5.754 2.578 5.754 5.758s-2.576 5.76-5.754 5.76z" stroke="#fff"/><path d="M160.878 566.898c0 3.18-2.576 5.76-5.754 5.76h-9.462c-3.178 0-5.754-2.58-5.754-5.76v-9.47c0-3.18 2.576-5.76 5.754-5.76h9.462c3.178 0 5.754 2.58 5.754 5.76v9.47z" stroke="#fff"/><path d="M155.38 33.088c0 2.968-2.405 5.374-5.37 5.374-2.967 0-5.37-2.406-5.37-5.374 0-2.97 2.403-5.375 5.37-5.375 2.965 0 5.37 2.406 5.37 5.375z" stroke="#fff"/></g></g></svg>
